layouts/icon-pack/weapon_flail.svg

<?xml version="1.0" encoding="UTF-8"?>
<svg width="1200pt" height="1200pt" version="1.1" viewBox="0 0 1200 1200" xmlns="http://www.w3.org/2000/svg">
 <g fill="#fff">
  <path d="m1042.4 733.45c1.3086 1.5742 3.2656 2.457 5.3125 2.3984 2.0469-0.058593 3.9492-1.0547 5.1641-2.7031l30.258-41.227c2.8711-3.8984 2.5273-9.2969-0.82422-12.797-3.3477-3.4961-8.7266-4.082-12.746-1.3828l-43.172 28.688c-1.75 1.1758-2.8398 3.1133-2.9375 5.2188-0.097656 2.1094 0.80859 4.1367 2.4453 5.4688 5.9727 4.9453 11.496 10.414 16.5 16.336z"/>
  <path d="m843.98 733.45c4.9727-5.9453 10.461-11.434 16.406-16.406 1.6367-1.332 2.543-3.3594 2.4453-5.4688-0.097657-2.1055-1.1875-4.043-2.9375-5.2188l-43.172-28.688c-4.0195-2.668-9.375-2.0664-12.707 1.4219s-3.6875 8.8633-0.83984 12.758l30.234 41.227c1.1992 1.6914 3.1211 2.7266 5.1914 2.8008 2.0742 0.074219 4.0625-0.82422 5.3789-2.4258z"/>
  <path d="m1069.6 949.22c4.0195 2.6992 9.3984 2.1133 12.746-1.3828 3.3516-3.5 3.6953-8.8984 0.82422-12.797l-27.539-37.383c-1.2344-1.6758-3.1758-2.6758-5.2578-2.707-2.0781-0.03125-4.0508 0.90625-5.3359 2.543-4.4727 5.6602-9.4102 10.938-14.766 15.773-1.5234 1.3672-2.332 3.3672-2.1836 5.4102 0.14453 2.043 1.2305 3.9062 2.9336 5.043z"/>
  <path d="m816.82 949.22 38.648-25.547c1.7031-1.1367 2.7891-3 2.9336-5.043 0.14844-2.043-0.66016-4.043-2.1836-5.4102-5.3672-4.8281-10.316-10.105-14.789-15.773-1.2852-1.6367-3.2578-2.5742-5.3359-2.543-2.082 0.03125-4.0234 1.0312-5.2578 2.707l-27.516 37.5c-2.707 3.8906-2.3008 9.1523 0.97656 12.578s8.5156 4.0664 12.523 1.5312z"/>
  <path d="m186.84 1023.5 192.84-192.75c5.5352-5.5078 8.8242-12.875 9.2305-20.668 0.40625-7.7969-2.0977-15.465-7.0273-21.52l561.75-563.39c10.184-10.188 14.156-25.031 10.426-38.941-3.7305-13.91-14.598-24.777-28.512-28.5-13.914-3.7266-28.754 0.25391-38.938 10.441l-561.82 563.51c-6.0586-4.9219-13.727-7.418-21.523-7.0078-7.793 0.41016-15.156 3.7031-20.664 9.2344l-192.63 192.75c-17.301 17.305-24.055 42.523-17.719 66.156 6.3359 23.633 24.801 42.09 48.434 48.422 23.637 6.3281 48.852-0.42969 66.152-17.734z"/>
  <path d="m1117.1 798.87-77.344-8.8359c-7.9336-28.418-27.977-51.898-54.793-64.199-26.812-12.301-57.688-12.176-84.398 0.34766-26.715 12.52-46.562 36.168-54.262 64.648l-77.062 8.8125c-16.242 1.8516-17.672 24.891-1.7812 28.734l80.18 19.43c10.137 31.301 34.941 55.66 66.422 65.227l14.812 83.461c2.8594 16.102 25.945 16.102 28.805 0l14.812-83.461c31.73-9.6914 56.637-34.41 66.562-66.07l79.898-19.359c15.82-3.8438 14.391-26.883-1.8516-28.734z"/>
  <path d="m943.22 372.8c6.168-0.007813 12.082-2.4609 16.441-6.8242 4.3594-4.3633 6.8086-10.281 6.8086-16.449v-27.07c0.19922-6.2969-2.1602-12.406-6.5469-16.934-4.3828-4.5234-10.414-7.0781-16.715-7.0781s-12.332 2.5547-16.715 7.0781c-4.3867 4.5273-6.7461 10.637-6.5469 16.934v27.07c0 6.1719 2.4531 12.094 6.8164 16.457s10.285 6.8164 16.457 6.8164z"/>
  <path d="m919.95 641.51c-0.19922 6.2969 2.1602 12.406 6.5469 16.934 4.3828 4.5234 10.414 7.0781 16.715 7.0781s12.332-2.5547 16.715-7.0781c4.3867-4.5273 6.7461-10.637 6.5469-16.934v-201.02c-0.25781-8.1367-4.7461-15.543-11.84-19.539-7.0898-3.9961-15.754-3.9961-22.844 0-7.0938 3.9961-11.582 11.402-11.84 19.539z"/>
 </g>
</svg>

<?xml version="1.0" encoding="UTF-8" standalone="no"?>
<!DOCTYPE svg PUBLIC "-//W3C//DTD SVG 1.1//EN" "http://www.w3.org/Graphics/SVG/1.1/DTD/svg11.dtd">
<svg width="100%" height="100%" viewBox="0 0 512 429" version="1.1" xmlns="http://www.w3.org/2000/svg" xmlns:xlink="http://www.w3.org/1999/xlink" xml:space="preserve" xmlns:serif="http://www.serif.com/" style="fill-rule:evenodd;clip-rule:evenodd;stroke-linejoin:round;stroke-miterlimit:2;">
    <g transform="matrix(1,0,0,1,-69.9157,-156.358)">
        <g transform="matrix(0.482944,0,0,0.482944,36.1503,80.8456)">
            <path d="M1042.4,733.45C1043.71,735.024 1045.67,735.907 1047.71,735.848C1049.76,735.79 1051.66,734.794 1052.88,733.145L1083.13,691.918C1086.01,688.02 1085.66,682.621 1082.31,679.121C1078.96,675.625 1073.58,675.039 1069.56,677.739L1026.39,706.427C1024.64,707.602 1023.55,709.54 1023.46,711.645C1023.36,713.755 1024.26,715.782 1025.9,717.114C1031.87,722.059 1037.4,727.528 1042.4,733.45L1042.4,733.45Z" style="fill:white;fill-rule:nonzero;"/>
            <path d="M843.98,733.45C848.953,727.505 854.441,722.016 860.386,717.044C862.023,715.712 862.929,713.685 862.831,711.575C862.734,709.47 861.644,707.532 859.894,706.356L816.722,677.668C812.702,675 807.347,675.602 804.015,679.09C800.683,682.579 800.327,687.954 803.175,691.848L833.409,733.075C834.608,734.767 836.53,735.802 838.6,735.876C840.675,735.95 842.663,735.052 843.979,733.45L843.98,733.45Z" style="fill:white;fill-rule:nonzero;"/>
            <path d="M1069.6,949.22C1073.62,951.919 1079,951.333 1082.35,947.837C1085.7,944.337 1086.04,938.939 1083.17,935.04L1055.63,897.657C1054.4,895.981 1052.45,894.981 1050.37,894.95C1048.3,894.919 1046.32,895.856 1045.04,897.493C1040.57,903.153 1035.63,908.431 1030.27,913.266C1028.75,914.633 1027.94,916.633 1028.09,918.676C1028.23,920.719 1029.32,922.583 1031.02,923.719L1069.6,949.22Z" style="fill:white;fill-rule:nonzero;"/>
            <path d="M816.82,949.22L855.468,923.673C857.171,922.536 858.257,920.673 858.402,918.63C858.55,916.587 857.741,914.587 856.218,913.22C850.851,908.392 845.902,903.115 841.429,897.447C840.144,895.81 838.171,894.873 836.093,894.904C834.011,894.935 832.07,895.935 830.835,897.611L803.319,935.111C800.612,939.001 801.019,944.263 804.296,947.689C807.573,951.114 812.811,951.755 816.819,949.22L816.82,949.22Z" style="fill:white;fill-rule:nonzero;"/>
            <path d="M186.84,1023.5L379.68,830.75C385.215,825.242 388.504,817.875 388.911,810.082C389.317,802.285 386.813,794.617 381.883,788.562L943.633,225.172C953.817,214.984 957.789,200.141 954.059,186.231C950.329,172.321 939.461,161.454 925.547,157.731C911.633,154.004 896.793,157.985 886.609,168.172L324.789,731.682C318.731,726.76 311.062,724.264 303.266,724.674C295.473,725.084 288.11,728.377 282.602,733.909L89.972,926.659C72.671,943.964 65.917,969.182 72.253,992.815C78.589,1016.45 97.054,1034.9 120.687,1041.24C144.324,1047.57 169.539,1040.81 186.839,1023.5L186.84,1023.5Z" style="fill:white;fill-rule:nonzero;"/>
            <path d="M1117.1,798.87L1039.76,790.034C1031.82,761.616 1011.78,738.136 984.963,725.835C958.151,713.534 927.275,713.659 900.565,726.183C873.85,738.703 854.003,762.351 846.303,790.831L769.241,799.643C752.999,801.495 751.569,824.534 767.46,828.377L847.64,847.807C857.777,879.108 882.581,903.467 914.062,913.034L928.874,996.495C931.733,1012.6 954.819,1012.6 957.679,996.495L972.491,913.034C1004.22,903.343 1029.13,878.624 1039.05,846.964L1118.95,827.605C1134.77,823.761 1133.34,800.722 1117.1,798.871L1117.1,798.87Z" style="fill:white;fill-rule:nonzero;"/>
            <path d="M943.22,372.8C949.388,372.792 955.302,370.339 959.661,365.976C964.02,361.613 966.47,355.695 966.47,349.527L966.47,322.457C966.669,316.16 964.309,310.051 959.923,305.523C955.54,300.999 949.509,298.445 943.208,298.445C936.907,298.445 930.876,300.999 926.493,305.523C922.106,310.05 919.747,316.16 919.946,322.457L919.946,349.527C919.946,355.699 922.399,361.621 926.762,365.984C931.126,370.347 937.047,372.8 943.219,372.8L943.22,372.8Z" style="fill:white;fill-rule:nonzero;"/>
            <path d="M919.95,641.51C919.751,647.807 922.11,653.916 926.497,658.444C930.88,662.967 936.911,665.522 943.212,665.522C949.513,665.522 955.544,662.967 959.927,658.444C964.314,653.917 966.673,647.807 966.474,641.51L966.474,440.49C966.216,432.353 961.728,424.947 954.634,420.951C947.544,416.955 938.88,416.955 931.79,420.951C924.696,424.947 920.208,432.353 919.95,440.49L919.95,641.51Z" style="fill:white;fill-rule:nonzero;"/>
        </g>
    </g>
</svg>
